app/assets/v2/images/presskit/ZipFile.svg

<?xml version="1.0" encoding="UTF-8"?>
<svg width="71px" height="88px" viewBox="0 0 71 88" version="1.1" xmlns="http://www.w3.org/2000/svg" xmlns:xlink="http://www.w3.org/1999/xlink">
    <!-- Generator: Sketch 49 (51002) - http://www.bohemiancoding.com/sketch -->
    <title>ZipFile</title>
    <desc>Created with Sketch.</desc>
    <defs>
        <polygon id="path-1" points="0 0 71 0 71 88 0 88"></polygon>
    </defs>
    <g id="Module-02-Templates" stroke="none" stroke-width="1" fill="none" fill-rule="evenodd">
        <g id="Gitcoin-Press-kit" transform="translate(-805.000000, -4017.000000)">
            <g id="Resources" transform="translate(0.000000, 3784.000000)">
                <g id="card-copy" transform="translate(730.000000, 169.000000)">
                    <g id="ZipFile" transform="translate(75.000000, 64.000000)">
                        <g id="Group">
                            <mask id="mask-2" fill="white">
                                <use xlink:href="#path-1"></use>
                            </mask>
                            <g id="Clip-2"></g>
                            <path d="M22.1439089,58.7950077 L28.8560911,58.7950077 L28.8560911,51.9804697 L22.1439089,51.9804697 L22.1439089,58.7950077 Z M30.9274035,42.2644088 L27.5719545,42.2644088 L27.5719545,35.4511742 L28.2140228,35.4511742 C30.6359045,35.4511742 32.64301,33.6158893 32.9576235,31.2448785 L27.5719545,31.2448785 L27.5719545,27.1871782 L28.2140228,27.1871782 C30.6359045,27.1871782 32.64301,25.3518933 32.9576235,22.979579 L27.5719545,22.979579 L27.5719545,18.9218787 L28.2140228,18.9218787 C30.6359045,18.9218787 32.64301,17.0878973 32.9576235,14.7142795 L27.5719545,14.7142795 L27.5719545,3.21767939 C26.19536,3.32977776 24.813629,3.0808151 23.4280455,3 L23.4280455,14.7142795 L22.7859772,14.7142795 C20.3640955,14.7142795 18.35699,16.5495644 18.0423765,18.9218787 L23.4280455,18.9218787 L23.4280455,22.979579 L22.7859772,22.979579 C20.3640955,22.979579 18.35699,24.8135604 18.0423765,27.1871782 L23.4280455,27.1871782 L23.4280455,31.2448785 L22.7859772,31.2448785 C20.3640955,31.2448785 18.35699,33.0788599 18.0423765,35.4511742 L23.4280455,35.4511742 L23.4280455,42.2644088 L20.0713124,42.2644088 C18.9297149,42.2644088 18,43.2081206 18,44.3669049 L18,60.8975039 C18,62.0575916 18.9297149,63 20.0713124,63 L30.9274035,63 C32.0702851,63 33,62.0575916 33,60.8975039 L33,44.3669049 C33,43.2081206 32.0702851,42.2644088 30.9274035,42.2644088 Z" id="Fill-1" fill="#00ED92" mask="url(#mask-2)"></path>
                            <path d="M18.1539942,55.8263949 L25.0326406,55.8263949 L25.0326406,48.9220518 L18.1539942,48.9220518 L18.1539942,55.8263949 Z M66.7532697,80.2861002 C66.7532697,82.1904733 65.2109369,83.7369511 63.3132885,83.7369511 L7.68666039,83.7369511 C5.789012,83.7369511 4.24667918,82.1904733 4.24667918,80.2861002 L4.24667918,7.71389981 C4.24667918,5.81084732 5.789012,4.26304889 7.68666039,4.26304889 L19.4699778,4.26304889 L19.4699778,11.1647507 L18.811986,11.1647507 C16.3300409,11.1647507 14.2731585,13.0242219 13.9507425,15.4277996 L19.4699778,15.4277996 L19.4699778,19.5389741 L18.811986,19.5389741 C16.3300409,19.5389741 14.2731585,21.3971246 13.9507425,23.802023 L19.4699778,23.802023 L19.4699778,27.9131975 L18.811986,27.9131975 C16.3300409,27.9131975 14.2731585,29.771348 13.9507425,32.1749257 L19.4699778,32.1749257 L19.4699778,39.0779482 L16.0299966,39.0779482 C14.8600872,39.0779482 13.907315,40.0340967 13.907315,41.208152 L13.907315,57.9565987 C13.907315,59.1319747 14.8600872,60.0868025 16.0299966,60.0868025 L27.1553222,60.0868025 C28.3265477,60.0868025 29.2793198,59.1319747 29.2793198,57.9565987 L29.2793198,41.208152 C29.2793198,40.0340967 28.3265477,39.0779482 27.1553222,39.0779482 L23.716657,39.0779482 L23.716657,32.1749257 L24.3746488,32.1749257 C26.856594,32.1749257 28.9134764,30.3154546 29.2358924,27.9131975 L23.716657,27.9131975 L23.716657,23.802023 L24.3746488,23.802023 C26.856594,23.802023 28.9134764,21.9425519 29.2358924,19.5389741 L23.716657,19.5389741 L23.716657,15.4277996 L24.3746488,15.4277996 C26.856594,15.4277996 28.9134764,13.5696491 29.2358924,11.1647507 L23.716657,11.1647507 L23.716657,4.26304889 L50.0652813,4.26304889 L50.0652813,16.0881232 C50.0652813,18.802053 52.2656059,21.0088543 54.9699523,21.0088543 L66.7532697,21.0088543 L66.7532697,80.2861002 Z M53.6973961,0.616742204 C53.303917,0.22451001 52.7590998,0 52.2024387,0 L52.1919108,0 L7.68666039,0 C3.44787712,0 0,3.46009545 0,7.71389981 L0,80.2861002 C0,84.5399046 3.44787712,88 7.68666039,88 L63.3132885,88 C67.5520718,88 70.9999489,84.5399046 70.9999489,80.2861002 L70.9999489,18.8786505 C71.0038969,18.3120929 70.7788637,17.7613831 70.3840686,17.361227 L53.6973961,0.616742204 Z" id="Fill-3" fill="#180041" mask="url(#mask-2)"></path>
                            <path d="M54.148033,68.4966744 L54.148033,54 L49.8297211,54 L49.8297211,68.4966744 L47.0450642,65.65947 L44,68.7606624 L50.4774679,75.3590291 C51.320193,76.213657 52.679807,76.213657 53.5212235,75.3590291 L60,68.7606624 L56.9549358,65.65947 L54.148033,68.4966744 Z" id="Fill-4" fill="#00ED92" mask="url(#mask-2)"></path>
                        </g>
                    </g>
                </g>
            </g>
        </g>
    </g>
</svg>

<svg width="71" height="88" xmlns="http://www.w3.org/2000/svg" xmlns:xlink="http://www.w3.org/1999/xlink"><defs><path id="a" d="M0 0h71v88H0z"/></defs><g fill="none" fill-rule="evenodd"><mask id="b" fill="#fff"><use xlink:href="#a"/></mask><path d="M22.144 58.795h6.712V51.98h-6.712v6.815zm8.783-16.53h-3.355V35.45h.642c2.422 0 4.429-1.835 4.744-4.206h-5.386v-4.058h.642c2.422 0 4.429-1.835 4.744-4.207h-5.386v-4.058h.642c2.422 0 4.429-1.834 4.744-4.208h-5.386V3.218c-1.377.112-2.758-.137-4.144-.218v11.714h-.642c-2.422 0-4.429 1.836-4.744 4.208h5.386v4.058h-.642c-2.422 0-4.429 1.834-4.744 4.207h5.386v4.058h-.642c-2.422 0-4.429 1.834-4.744 4.206h5.386v6.813h-3.357c-1.141 0-2.071.944-2.071 2.103v16.53c0 1.16.93 2.103 2.071 2.103h10.856C32.07 63 33 62.058 33 60.898V44.367c0-1.159-.93-2.103-2.073-2.103z" fill="#00ED92" mask="url(#b)"/><path d="M18.154 55.826h6.879v-6.904h-6.879v6.904zm48.6 24.46a3.448 3.448 0 0 1-3.44 3.451H7.686a3.448 3.448 0 0 1-3.44-3.45V7.713a3.449 3.449 0 0 1 3.44-3.451H19.47v6.902h-.658c-2.482 0-4.539 1.86-4.861 4.263h5.519v4.111h-.658c-2.482 0-4.539 1.858-4.861 4.263h5.519v4.111h-.658c-2.482 0-4.539 1.858-4.861 4.262h5.519v6.903h-3.44a2.13 2.13 0 0 0-2.123 2.13v16.749c0 1.175.953 2.13 2.123 2.13h11.125a2.129 2.129 0 0 0 2.124-2.13V41.208a2.13 2.13 0 0 0-2.124-2.13h-3.438v-6.903h.658c2.482 0 4.538-1.86 4.86-4.262h-5.518v-4.111h.658c2.482 0 4.538-1.86 4.86-4.263h-5.518v-4.111h.658c2.482 0 4.538-1.858 4.86-4.263h-5.518V4.263h26.348v11.825c0 2.714 2.2 4.92 4.905 4.92h11.783v59.278zM53.696.616A2.132 2.132 0 0 0 52.202 0H7.687C3.447 0 0 3.46 0 7.714v72.572C0 84.54 3.448 88 7.687 88h55.626C67.553 88 71 84.54 71 80.286V18.88a2.15 2.15 0 0 0-.616-1.518L53.697.617z" fill="#180041" mask="url(#b)"/><path d="M54.148 68.497V54H49.83v14.497l-2.785-2.838L44 68.761l6.477 6.598a2.127 2.127 0 0 0 3.044 0L60 68.761l-3.045-3.102-2.807 2.838z" fill="#00ED92" mask="url(#b)"/></g></svg>
